public/images/hashed/12a48d1ecec932a95fb9801be10e698a.svg

<svg xmlns="http://www.w3.org/2000/svg" width="80" height="80"><defs><linearGradient id="a" x1="0%" x2="100%" y1="100%" y2="0%"><stop offset="0%" stop-color="#BD0816"/><stop offset="100%" stop-color="#FF5252"/></linearGradient></defs><g fill="none" fill-rule="evenodd"><path fill="url(#a)" d="M0 0h80v80H0z"/><path fill="#FFF" d="M37 38c-2.43 0-4-1.57-4-4 0-2.43 1.57-4 4-4 2.43 0 4 1.57 4 4 0 2.43-1.57 4-4 4Zm15-5h-9.076c-.423-2.988-2.736-5-5.924-5-3.532 0-6 2.467-6 6s2.468 6 6 6c3.188 0 5.501-2.012 5.924-5H52v-2Zm-25 1c0 5.595 4.393 9.979 10 9.979 4.01 0 7.563-2.865 9.052-7.297l1.896.636c-1.767 5.261-6.064 8.661-10.948 8.661-6.617 0-12-5.374-12-11.979 0-6.617 5.383-12 12-12 5.239 0 9.332 2.872 10.948 7.682l-1.896.636C44.703 26.303 41.404 24 37 24c-5.514 0-10 4.486-10 10ZM14 45h3v-5h-3v5Zm0-18h3v-5h-3v5Zm5 19V15h37v27h2V15c0-1.845-1.032-2-2-2H19c-.968 0-2 .155-2 2v5h-4a1 1 0 0 0-1 1v7a1 1 0 0 0 1 1h4v9h-4a1 1 0 0 0-1 1v7a1 1 0 0 0 1 1h4v6c0 1.551.448 2 2 2h21v-2H19v-7Zm47 20h-1.586l-1.707-1.707A.996.996 0 0 0 62 64h-2v-1a.997.997 0 0 0-.293-.707l-1-1A.996.996 0 0 0 58 61h-2v-2a.997.997 0 0 0-.293-.707l-1.54-1.541a1.001 1.001 0 0 0-1.171-.258 6.021 6.021 0 0 1-8.5-5.479A6.021 6.021 0 0 1 50.511 45a6.021 6.021 0 0 1 6.014 6.015c0 1.068-.146 1.934-.436 2.572a1 1 0 0 0 .204 1.12L66 64.414V66Zm1.707-2.707-9.545-9.545c.241-.777.363-1.693.363-2.733 0-4.42-3.595-8.015-8.014-8.015-4.419 0-8.015 3.595-8.015 8.015 0 4.419 3.596 8.014 8.015 8.014.915 0 1.804-.151 2.654-.449l.835.834V62a1 1 0 0 0 1 1h2.586l.414.414V65a1 1 0 0 0 1 1h2.586l1.707 1.707A.996.996 0 0 0 64 68h3a1 1 0 0 0 1-1v-3a.997.997 0 0 0-.293-.707ZM50.511 52.029a1.016 1.016 0 0 1 0-2.029 1.016 1.016 0 0 1 0 2.029Zm0-4.029a3.019 3.019 0 0 0-3.015 3.015 3.018 3.018 0 0 0 3.015 3.014 3.017 3.017 0 0 0 3.014-3.014A3.018 3.018 0 0 0 50.511 48Z"/></g></svg>

<?xml version="1.0" encoding="UTF-8"?>
<svg width="80px" height="80px" viewBox="0 0 80 80" version="1.1" xmlns="http://www.w3.org/2000/svg" xmlns:xlink="http://www.w3.org/1999/xlink">
    <!-- Generator: Sketch 64 (93537) - https://sketch.com -->
    <title>Icon-Architecture/64/Arch_AWS-CloudHSM_64</title>
    <desc>Created with Sketch.</desc>
    <defs>
        <linearGradient x1="0%" y1="100%" x2="100%" y2="0%" id="linearGradient-1">
            <stop stop-color="#BD0816" offset="0%"></stop>
            <stop stop-color="#FF5252" offset="100%"></stop>
        </linearGradient>
    </defs>
    <g id="Icon-Architecture/64/Arch_AWS-CloudHSM_64" stroke="none" stroke-width="1" fill="none" fill-rule="evenodd">
        <g id="Icon-Architecture-BG/64/Security-Identity-Compliance" fill="url(#linearGradient-1)">
            <rect id="Rectangle" x="0" y="0" width="80" height="80"></rect>
        </g>
        <path d="M37,38 C34.57,38 33,36.43 33,34 C33,31.57 34.57,30 37,30 C39.43,30 41,31.57 41,34 C41,36.43 39.43,38 37,38 L37,38 Z M52,33 L42.924,33 C42.501,30.012 40.188,28 37,28 C33.468,28 31,30.467 31,34 C31,37.533 33.468,40 37,40 C40.188,40 42.501,37.988 42.924,35 L52,35 L52,33 Z M27,34 C27,39.595 31.393,43.979 37,43.979 C41.01,43.979 44.563,41.114 46.052,36.682 L47.948,37.318 C46.181,42.579 41.884,45.979 37,45.979 C30.383,45.979 25,40.605 25,34 C25,27.383 30.383,22 37,22 C42.239,22 46.332,24.872 47.948,29.682 L46.052,30.318 C44.703,26.303 41.404,24 37,24 C31.486,24 27,28.486 27,34 L27,34 Z M14,45 L17,45 L17,40 L14,40 L14,45 Z M14,27 L17,27 L17,22 L14,22 L14,27 Z M19,46 L19,39 L19,28 L19,21 L19,15 L56,15 L56,42 L58,42 L58,15 C58,13.155 56.968,13 56,13 L19,13 C18.032,13 17,13.155 17,15 L17,20 L13,20 C12.447,20 12,20.448 12,21 L12,28 C12,28.552 12.447,29 13,29 L17,29 L17,38 L13,38 C12.447,38 12,38.448 12,39 L12,46 C12,46.552 12.447,47 13,47 L17,47 L17,53 C17,54.551 17.448,55 19,55 L40,55 L40,53 L19,53 L19,46 Z M66,66 L64.414,66 L62.707,64.293 C62.52,64.105 62.266,64 62,64 L60,64 L60,63 C60,62.735 59.895,62.48 59.707,62.293 L58.707,61.293 C58.52,61.105 58.266,61 58,61 L56,61 L56,59 C56,58.735 55.895,58.48 55.707,58.293 L54.167,56.752 C54.105,56.681 54.032,56.617 53.951,56.564 C53.666,56.38 53.306,56.354 52.996,56.494 C52.213,56.849 51.377,57.029 50.511,57.029 C47.194,57.029 44.496,54.331 44.496,51.015 C44.496,47.698 47.194,45 50.511,45 C53.827,45 56.525,47.698 56.525,51.015 C56.525,52.083 56.379,52.949 56.089,53.587 C55.917,53.966 55.998,54.413 56.293,54.707 L66,64.414 L66,66 Z M67.707,63.293 L58.162,53.748 C58.403,52.971 58.525,52.055 58.525,51.015 C58.525,46.595 54.93,43 50.511,43 C46.092,43 42.496,46.595 42.496,51.015 C42.496,55.434 46.092,59.029 50.511,59.029 C51.426,59.029 52.315,58.878 53.165,58.58 L54,59.414 L54,62 C54,62.552 54.447,63 55,63 L57.586,63 L58,63.414 L58,65 C58,65.552 58.447,66 59,66 L61.586,66 L63.293,67.707 C63.48,67.895 63.734,68 64,68 L67,68 C67.553,68 68,67.552 68,67 L68,64 C68,63.735 67.895,63.48 67.707,63.293 L67.707,63.293 Z M50.511,52.029 C49.951,52.029 49.496,51.574 49.496,51.015 C49.496,50.455 49.951,50 50.511,50 C51.07,50 51.525,50.455 51.525,51.015 C51.525,51.574 51.07,52.029 50.511,52.029 L50.511,52.029 Z M50.511,48 C48.849,48 47.496,49.353 47.496,51.015 C47.496,52.677 48.849,54.029 50.511,54.029 C52.173,54.029 53.525,52.677 53.525,51.015 C53.525,49.353 52.173,48 50.511,48 L50.511,48 Z" id="AWS-CloudHSM_Icon_64_Squid" fill="#FFFFFF"></path>
    </g>
</svg>
